icons/lines/sidebar-left.svg

<svg xmlns="http://www.w3.org/2000/svg" width="24" height="24" viewBox="0 0 24 24" fill="none" stroke="currentColor" stroke-width="2" stroke-linecap="round" stroke-linejoin="round" >
  <path d="M21.9702 15V9C21.9702 4 19.9702 2 14.9702 2H8.97021C3.97021 2 1.97021 4 1.97021 9V15C1.97021 20 3.97021 22 8.97021 22H14.9702C19.9702 22 21.9702 20 21.9702 15Z"/>
  <path d="M7.97021 2V22"/>
  <path d="M14.9702 9.44L12.4102 12L14.9702 14.56"/>
  </svg>

<svg xmlns="http://www.w3.org/2000/svg" width="24" height="24" viewBox="0 0 24 24" fill="none" stroke="currentColor" stroke-width="2" stroke-linecap="round" stroke-linejoin="round">
  <path d="M14.97 9.44 12.41 12l2.56 2.56" />
  <path d="M21.97 9c0-5-2-7-7-7h-6c-5 0-7 2-7 7v6c0 5 2 7 7 7h6c5 0 7-2 7-7z" />
  <path d="M7.97 2v20" />
</svg>
